src/images/svg/blog/video/left-arrow.svg

<svg width="32" height="32" viewBox="0 0 32 32" fill="none" xmlns="http://www.w3.org/2000/svg">
<g opacity="0.32">
<path d="M20.585 7.73629C20.1359 7.28712 19.4117 7.28712 18.9625 7.73629L11.345 15.3538C10.9875 15.7113 10.9875 16.2888 11.345 16.6463L18.9625 24.2638C19.4117 24.713 20.1359 24.713 20.585 24.2638C21.0342 23.8146 21.0342 23.0905 20.585 22.6413L13.9484 15.9955L20.5942 9.34962C21.0342 8.90962 21.0342 8.17629 20.585 7.73629Z" fill="#E6E9E9"/>
<circle cx="16" cy="16" r="15" stroke="#E6E9E9" stroke-width="2"/>
</g>
</svg>

<svg width="32" height="32" fill="none" xmlns="http://www.w3.org/2000/svg"><g opacity=".32"><path d="M20.585 7.736a1.145 1.145 0 0 0-1.623 0l-7.617 7.618a.913.913 0 0 0 0 1.292l7.617 7.618c.45.449 1.174.449 1.623 0 .45-.45.45-1.174 0-1.623l-6.637-6.645 6.646-6.646c.44-.44.44-1.174-.009-1.614z" fill="#E6E9E9"/><circle cx="16" cy="16" r="15" stroke="#E6E9E9" stroke-width="2"/></g></svg>
